X:54
T:Tom Pratt's Farewell. ThoH.054
Q:1/2=60
M:C
L:1/8
B:Thompson's Compleat Collection of 120 Favourite Hornpipes.
Z:Village Music Project, Simon Wilson 2016
O:England.
K:Eb
C4E4|G2A2=B,4|(DF)(Bd)f2a2|(gf)(ed){d}Tc3d|
{d}e4{c}B4|c(B/A/) G(F/E/){E}D4|(Bdfa) (gd)(ec)|(BAGF)E4:|
|:{a}g3f (=eg)(B_d)|E(_dcB) (Ac)(=EF)|{g}f3e (df)(Ac)|D(cBA) (GB)(DE)|
(gc=Bc) (gc)(ag)|(fedc){c}T=B3c|(dc)(=BA) (GFED)|(Ec)(E=B) c2C2:|

